src/apps/symbolic/budgie-wstopwatch-symbolic.svg

<svg width="16" height="16" version="1.1" viewBox="0 0 16 16" xmlns="http://www.w3.org/2000/svg">
 <path d="m0 0v16h5v-16h-5zm1 1h3v14h-3v-14z" fill="#363636" stop-color="#000000" stroke-width="0"/>
 <path d="m6 6v10h4v-10h-4zm1 1h2v8h-2v-8z" fill="#363636" stop-color="#000000" stroke-width="0"/>
 <path d="m11 3v13h5v-13h-5zm1 1h3v11h-3v-11z" fill="#363636" stop-color="#000000" stroke-width="0"/>
</svg>

<svg xmlns="http://www.w3.org/2000/svg" width="16" height="16">
    <path fill="#050505" fill-opacity=".7" d="M0 0v16h5V0H0zm1 1h3v14H1V1zM6 6v10h4V6H6zm1 1h2v8H7V7zM11 3v13h5V3h-5zm1 1h3v11h-3V4z"/>
</svg>
